source/assets/ui/themes/dark/settings.svg

<?xml version="1.0" encoding="UTF-8" standalone="no"?>
<!-- Created with Inkscape (http://www.inkscape.org/) -->

<svg
   width="24"
   height="24"
   viewBox="0 0 24 24"
   version="1.1"
   id="SVGRoot"
   xmlns="http://www.w3.org/2000/svg"
   xmlns:svg="http://www.w3.org/2000/svg"
   xmlns:rdf="http://www.w3.org/1999/02/22-rdf-syntax-ns#"
   xmlns:cc="http://creativecommons.org/ns#"
   xmlns:dc="http://purl.org/dc/elements/1.1/">
  <defs
     id="defs1725">
    <clipPath
       id="clipPath4439-1-0">
      <path
         d="m 76.965,496.958 h 257.093 v 52.963 H 76.965 Z"
         id="path4441-7-0" />
    </clipPath>
  </defs>
  <g
     id="layer1"
     transform="translate(-77.139297,-30.827057)">
    <g
       id="g2025-0-6-2"
       style="stroke-width:1.25"
       transform="matrix(0.8,0,0,0.8,285.1393,-133.17294)">
      <path
         id="path1894-0-7-1"
         style="opacity:1;fill:#b8babd;fill-opacity:1;stroke:none;stroke-width:0.5;stroke-linecap:butt;stroke-linejoin:miter;stroke-miterlimit:4;stroke-dasharray:none;stroke-dashoffset:9.6;stroke-opacity:1;paint-order:markers stroke fill"
         d="M 12 5 C 11.493052 5 10.987877 5.7226349 10.601562 7.1503906 C 10.165198 7.2774248 9.7529576 7.4597943 9.3730469 7.6933594 C 8.5096427 6.6359826 7.5006774 6.6184953 7.1308594 7.1914062 C 6.6294992 7.5952269 6.683115 8.5449039 7.6953125 9.3710938 C 7.4610796 9.7516381 7.2776809 10.164319 7.1503906 10.601562 C 4.2948791 11.374192 4.2948791 12.625808 7.1503906 13.398438 C 7.2774248 13.834802 7.4597943 14.247042 7.6933594 14.626953 C 6.6585458 15.472043 6.6199422 16.455735 7.15625 16.84375 C 7.5442647 17.380058 8.527957 17.341454 9.3730469 16.306641 C 9.7529576 16.540206 10.165198 16.722575 10.601562 16.849609 C 11.374192 19.705121 12.625808 19.705121 13.398438 16.849609 C 13.835681 16.722319 14.248362 16.53892 14.628906 16.304688 C 15.455095 17.316885 16.404766 17.370501 16.808594 16.869141 C 17.381505 16.499323 17.364017 15.490357 16.306641 14.626953 C 16.540206 14.247042 16.722575 13.834802 16.849609 13.398438 C 19.705121 12.625808 19.705121 11.374192 16.849609 10.601562 C 16.722575 10.165198 16.540206 9.7529576 16.306641 9.3730469 C 17.340756 8.5289313 17.369563 7.5551331 16.832031 7.1679688 C 16.444867 6.6304368 15.471069 6.659244 14.626953 7.6933594 C 14.247042 7.4597943 13.834802 7.2774248 13.398438 7.1503906 C 13.012123 5.7226349 12.506948 5 12 5 z M 12 9.4492188 C 13.423128 9.4492188 14.550781 10.576872 14.550781 12 C 14.550781 13.423128 13.423128 14.550781 12 14.550781 C 10.576872 14.550781 9.4492188 13.423128 9.4492188 12 C 9.4492188 10.576872 10.576872 9.4492187 12 9.4492188 z "
         transform="matrix(1.25,0,0,1.25,-260,205)" />
    </g>
  </g>
  <metadata
     id="metadata2103">
    <rdf:RDF>
      <cc:Work
         rdf:about="">
        <dc:creator>
          <cc:Agent>
            <dc:title>NinStar</dc:title>
          </cc:Agent>
        </dc:creator>
      </cc:Work>
    </rdf:RDF>
  </metadata>
</svg>

<?xml version="1.0" encoding="UTF-8"?>
<svg id="a" width="24" height="24" version="1.1" viewBox="0 0 24 24" xmlns="http://www.w3.org/2000/svg" xmlns:cc="http://creativecommons.org/ns#" xmlns:dc="http://purl.org/dc/elements/1.1/" xmlns:rdf="http://www.w3.org/1999/02/22-rdf-syntax-ns#"><g transform="translate(-77.139 -30.827)"><g transform="matrix(.8 0 0 .8 285.14 -133.17)" stroke-width="1.25"><path transform="matrix(1.25,0,0,1.25,-260,205)" d="m12 5c-0.50695 0-1.0121 0.72263-1.3984 2.1504-0.43636 0.12703-0.8486 0.3094-1.2285 0.54297-0.8634-1.0574-1.8724-1.0749-2.2422-0.50195-0.50136 0.40382-0.44774 1.3535 0.56445 2.1797-0.23423 0.38054-0.41763 0.79323-0.54492 1.2305-2.8555 0.77263-2.8555 2.0242 0 2.7969 0.12703 0.43636 0.3094 0.8486 0.54297 1.2285-1.0348 0.84509-1.0734 1.8288-0.53711 2.2168 0.38801 0.53631 1.3717 0.4977 2.2168-0.53711 0.37991 0.23356 0.79215 0.41593 1.2285 0.54297 0.77263 2.8555 2.0242 2.8555 2.7969 0 0.43724-0.12729 0.84992-0.31069 1.2305-0.54492 0.82619 1.0122 1.7759 1.0658 2.1797 0.56445 0.57291-0.36982 0.55542-1.3788-0.50195-2.2422 0.23356-0.37991 0.41593-0.79215 0.54297-1.2285 2.8555-0.77263 2.8555-2.0242 0-2.7969-0.12703-0.43636-0.3094-0.8486-0.54297-1.2285 1.0341-0.84412 1.0629-1.8179 0.52539-2.2051-0.38716-0.53753-1.361-0.50872-2.2051 0.52539-0.37991-0.23357-0.79215-0.41593-1.2285-0.54297-0.38632-1.4278-0.89149-2.1504-1.3984-2.1504zm0 4.4492c1.4231 0 2.5508 1.1277 2.5508 2.5508s-1.1277 2.5508-2.5508 2.5508-2.5508-1.1277-2.5508-2.5508 1.1277-2.5508 2.5508-2.5508z" fill="#b8babd" style="paint-order:markers stroke fill"/></g></g><metadata><rdf:RDF><cc:Work rdf:about=""><dc:creator><cc:Agent><dc:title>NinStar</dc:title></cc:Agent></dc:creator></cc:Work></rdf:RDF></metadata></svg>
